assets/img/arr-concept.svg

<svg width="312" height="162" viewBox="0 0 312 162" fill="none" xmlns="http://www.w3.org/2000/svg">
<path d="M260.242 123.072C258.753 123.404 194.997 137.101 139.032 128.298L136.471 127.812L133.921 127.237C132.235 126.846 130.522 126.5 128.839 126.068L123.794 124.742C122.116 124.302 120.46 123.756 118.793 123.273L116.518 122.589L114.274 121.824C112.782 121.309 111.264 120.84 109.782 120.281C108.3 119.723 106.755 119.18 105.225 118.652C103.694 118.125 102.205 117.522 100.699 116.969C93.8172 114.156 87.2117 110.937 80.9387 107.34C74.2968 103.681 68.0436 99.5977 62.2415 95.1316C56.4974 90.4922 51.281 85.4607 46.6528 80.0956C41.8964 74.7745 37.0758 69.4408 32.9111 63.7521C28.6809 57.9454 24.8679 51.9546 21.49 45.8076C19.7683 42.7583 18.1794 39.6524 16.6063 36.5431C15.0332 33.4337 13.5928 30.2675 12.1863 27.1008C9.38234 20.7451 7.01372 14.299 4.6746 7.79243C4.12013 6.23309 3.56572 4.67389 3.11927 3.08371L2.74 1.75418C2.68955 1.34572 2.58341 0.943012 2.42327 0.552694C2.29939 0.371632 1.98406 0.273643 1.61017 0.202207C0.870263 0.0575775 0.285021 0.70642 0.427836 1.3949C1.7655 7.52613 3.52346 13.5952 5.69393 19.5751C7.81203 25.5318 10.154 31.4248 12.5814 37.3192C13.8291 40.3262 15.0905 43.3236 16.6094 46.2566L17.7598 48.464L18.9629 50.6525C19.7482 52.12 20.6079 53.5574 21.4461 55.0063C24.8449 60.7718 28.615 66.3958 32.7411 71.8554C36.8831 77.3355 41.3875 82.6387 46.2356 87.7425L48.0582 89.6653L49.9483 91.5387L51.8411 93.4195L53.8011 95.2505L55.9144 97.2497L58.4078 99.481L59.7384 100.665L61.1297 101.829L63.9474 104.136C69.1957 108.231 74.8238 112.01 80.7845 115.44L82.9205 116.666L83.9898 117.283L85.0872 117.859L89.5352 120.233L94.1859 122.508C94.965 122.906 95.7748 123.271 96.5924 123.634L99.0762 124.763C105.727 127.74 112.65 130.318 119.787 132.476C185.971 153.979 254.519 132.818 257.163 132.222C258.478 131.928 259.801 131.633 261.071 131.262C262.342 130.891 263.627 130.49 264.889 130.047C266.288 129.56 268.047 129.033 268.777 127.833C269.28 127.086 269.693 126.301 270.009 125.491C270.327 124.825 270.3 124.086 269.933 123.435C269.344 122.617 268.044 122.449 267.016 122.403C264.728 122.352 262.443 122.578 260.242 123.072Z" fill="#DC0C23"/>
<path d="M252.119 160.107C254.32 158.768 256.571 157.471 258.634 155.961C259.665 155.226 260.633 154.411 261.6 153.616L266.021 150.058L270.476 146.499L274.911 143.006C278.338 140.309 281.977 137.848 285.538 135.29L292.425 130.347L297.743 126.515L300.467 124.615L305.217 121.24C306.81 120.103 308.057 118.997 309.339 117.964L311.14 116.552C307.088 115.793 303.383 115.031 299.704 114.391C297.373 114.002 295.145 113.664 293.089 113.356L290.513 112.994C289.688 112.875 288.862 112.75 288.044 112.603C284.789 111.951 281.585 111.15 278.446 110.206C275.265 109.34 271.983 108.955 268.76 108.327C265.536 107.7 262.243 106.947 258.986 106.273C255.729 105.599 252.478 104.992 249.199 104.471C245.943 103.882 242.647 103.446 239.326 103.166C238.526 103.115 237.732 103.057 236.933 102.986L236.274 102.924C236.108 102.914 235.839 102.779 235.676 102.869C235.513 103.046 235.4 103.248 235.343 103.462C235.126 104.049 235.236 104.691 235.566 104.759C241.422 106.024 247.391 106.941 253.075 108.797C254.536 109.272 255.976 109.786 257.463 110.167L261.939 111.303L270.893 113.587C273.893 114.372 276.888 115.172 279.876 116.02C281.382 116.447 282.881 116.885 284.372 117.333C285.839 117.78 287.99 118.545 289.97 119.093L290.91 119.348L291.137 119.412L291.148 119.443L291.262 119.525C291.314 119.566 291.374 119.598 291.441 119.62C291.552 119.67 291.708 119.702 291.716 119.748C291.619 119.778 291.518 119.8 291.416 119.815C291.078 119.89 291.017 119.863 290.997 119.854L290.908 119.914L290.021 120.503L288.253 121.698L284.727 124.094C281.08 126.577 277.554 129.188 274.067 131.857L264.648 139.074C261.51 141.498 258.391 143.946 255.293 146.419L250.654 150.106C248.954 151.468 247.1 152.71 245.766 154.455C245.473 154.741 245.27 155.077 245.174 155.437C245.077 155.797 245.089 156.17 245.21 156.525C245.418 157.224 245.677 157.912 245.986 158.587C246.257 159.223 246.672 159.815 247.21 160.334C247.444 160.568 247.742 160.757 248.083 160.885C248.423 161.014 248.796 161.078 249.173 161.074C250.264 161.02 251.3 160.68 252.119 160.107Z" fill="#DC0C23"/>
</svg>

<svg width="312" height="162" fill="none" xmlns="http://www.w3.org/2000/svg"><path d="M260.242 123.072c-1.489.332-65.245 14.029-121.21 5.226l-2.561-.486-2.55-.575c-1.686-.391-3.399-.737-5.082-1.169l-5.045-1.326c-1.678-.44-3.334-.986-5.001-1.469l-2.275-.684-2.244-.765c-1.492-.515-3.01-.984-4.492-1.543a175.802 175.802 0 0 0-4.557-1.629c-1.531-.527-3.02-1.13-4.526-1.683a165.968 165.968 0 0 1-19.76-9.629c-6.642-3.659-12.895-7.742-18.697-12.208-5.745-4.64-10.961-9.671-15.59-15.036-4.756-5.322-9.576-10.655-13.74-16.344A167.413 167.413 0 0 1 21.49 45.808c-1.722-3.05-3.31-6.156-4.884-9.265-1.573-3.11-3.013-6.276-4.42-9.442-2.804-6.356-5.172-12.802-7.511-19.309-.555-1.559-1.11-3.118-1.556-4.708l-.379-1.33A4.67 4.67 0 0 0 2.423.553C2.3.372 1.984.273 1.61.203A1.002 1.002 0 0 0 .428 1.394a141.977 141.977 0 0 0 5.266 18.18c2.118 5.957 4.46 11.85 6.887 17.744 1.248 3.007 2.51 6.005 4.028 8.938l1.15 2.207 1.204 2.189c.785 1.467 1.645 2.904 2.483 4.353a177.241 177.241 0 0 0 11.295 16.85 185.402 185.402 0 0 0 13.495 15.887l1.822 1.922 1.89 1.874 1.893 1.88 1.96 1.832 2.113 1.999 2.494 2.231 1.33 1.184 1.392 1.164 2.817 2.307a144.594 144.594 0 0 0 16.837 11.304l2.136 1.226 1.07.617 1.097.576 4.448 2.374 4.65 2.275c.78.398 1.59.763 2.407 1.126l2.484 1.129a173.891 173.891 0 0 0 20.711 7.713c66.184 21.503 134.732.342 137.376-.254 1.315-.294 2.638-.589 3.908-.96a75.023 75.023 0 0 0 3.818-1.215c1.399-.487 3.158-1.014 3.888-2.214.503-.747.916-1.532 1.232-2.342a2.188 2.188 0 0 0-.076-2.056c-.589-.818-1.889-.986-2.917-1.032a28.138 28.138 0 0 0-6.774.669Z" fill="#DC0C23"/><path d="M252.119 160.107c2.201-1.339 4.452-2.636 6.515-4.146 1.031-.735 1.999-1.55 2.966-2.345l4.421-3.558 4.455-3.559 4.435-3.493c3.427-2.697 7.066-5.158 10.627-7.716l6.887-4.943 5.318-3.832 2.724-1.9 4.75-3.375c1.593-1.137 2.84-2.243 4.122-3.276l1.801-1.412c-4.052-.759-7.757-1.521-11.436-2.161a397.914 397.914 0 0 0-6.615-1.035l-2.576-.362a72.455 72.455 0 0 1-2.469-.391 104.816 104.816 0 0 1-9.598-2.397c-3.181-.866-6.463-1.251-9.686-1.879-3.224-.627-6.517-1.38-9.774-2.054a213.754 213.754 0 0 0-9.787-1.802 105.06 105.06 0 0 0-9.873-1.305c-.8-.051-1.594-.109-2.393-.18l-.659-.062c-.166-.01-.435-.145-.598-.055a1.415 1.415 0 0 0-.333.593c-.217.587-.107 1.229.223 1.297 5.856 1.265 11.825 2.182 17.509 4.038 1.461.475 2.901.989 4.388 1.37l4.476 1.136 8.954 2.284c3 .785 5.995 1.585 8.983 2.433 1.506.427 3.005.865 4.496 1.313 1.467.447 3.618 1.212 5.598 1.76l.94.255.227.064.011.031.114.082a.58.58 0 0 0 .179.095c.111.05.267.082.275.128-.097.03-.198.052-.3.067-.338.075-.399.048-.419.039l-.089.06-.887.589-1.768 1.195-3.526 2.396c-3.647 2.483-7.173 5.094-10.66 7.763l-9.419 7.217a745.64 745.64 0 0 0-9.355 7.345l-4.639 3.687c-1.7 1.362-3.554 2.604-4.888 4.349a2.156 2.156 0 0 0-.592.982c-.097.36-.085.733.036 1.088.208.699.467 1.387.776 2.062a5.358 5.358 0 0 0 1.224 1.747c.234.234.532.423.873.551.34.129.713.193 1.09.189 1.091-.054 2.127-.394 2.946-.967Z" fill="#DC0C23"/></svg>
